media/Skein_HOMFLY.svg

<?xml version="1.0" encoding="UTF-8" standalone="no"?>
<svg
   id="svg2"
   sodipodi:version="0.32"
   inkscape:version="1.4.2 (ebf0e940d0, 2025-05-08)"
   version="1.0"
   sodipodi:docname="Skein_HOMFLY.svg"
   inkscape:output_extension="org.inkscape.output.svg.inkscape"
   width="297.86014"
   height="154.4705"
   xmlns:inkscape="http://www.inkscape.org/namespaces/inkscape"
   xmlns:sodipodi="http://sodipodi.sourceforge.net/DTD/sodipodi-0.dtd"
   xmlns="http://www.w3.org/2000/svg"
   xmlns:svg="http://www.w3.org/2000/svg"
   xmlns:rdf="http://www.w3.org/1999/02/22-rdf-syntax-ns#"
   xmlns:cc="http://creativecommons.org/ns#"
   xmlns:dc="http://purl.org/dc/elements/1.1/">
  <defs
     id="defs4">
    <inkscape:perspective
       sodipodi:type="inkscape:persp3d"
       inkscape:vp_x="0 : 681.65159 : 1"
       inkscape:vp_y="0 : 1000 : 0"
       inkscape:vp_z="744.09448 : 681.65159 : 1"
       inkscape:persp3d-origin="372.04724 : 506.25789 : 1"
       id="perspective10" />
    <inkscape:perspective
       id="perspective2390"
       inkscape:persp3d-origin="372.04724 : 506.25789 : 1"
       inkscape:vp_z="744.09448 : 681.65159 : 1"
       inkscape:vp_y="0 : 1000 : 0"
       inkscape:vp_x="0 : 681.65159 : 1"
       sodipodi:type="inkscape:persp3d" />
    <inkscape:perspective
       id="perspective3195"
       inkscape:persp3d-origin="372.04724 : 506.25789 : 1"
       inkscape:vp_z="744.09448 : 681.65159 : 1"
       inkscape:vp_y="0 : 1000 : 0"
       inkscape:vp_x="0 : 681.65159 : 1"
       sodipodi:type="inkscape:persp3d" />
    <inkscape:perspective
       id="perspective3254"
       inkscape:persp3d-origin="372.04724 : 506.25789 : 1"
       inkscape:vp_z="744.09448 : 681.65159 : 1"
       inkscape:vp_y="0 : 1000 : 0"
       inkscape:vp_x="0 : 681.65159 : 1"
       sodipodi:type="inkscape:persp3d" />
  </defs>
  <sodipodi:namedview
     id="base"
     pagecolor="#ffffff"
     bordercolor="#666666"
     borderopacity="1.0"
     gridtolerance="10000"
     guidetolerance="10"
     objecttolerance="10"
     inkscape:pageopacity="0.0"
     inkscape:pageshadow="2"
     inkscape:zoom="2.8"
     inkscape:cx="116.60714"
     inkscape:cy="94.107143"
     inkscape:document-units="px"
     inkscape:current-layer="layer1"
     showgrid="false"
     showguides="true"
     inkscape:guide-bbox="true"
     inkscape:window-width="2234"
     inkscape:window-height="1418"
     inkscape:window-x="0"
     inkscape:window-y="0"
     inkscape:showpageshadow="2"
     inkscape:pagecheckerboard="0"
     inkscape:deskcolor="#d1d1d1"
     inkscape:window-maximized="1" />
  <metadata
     id="metadata7">
    <rdf:RDF>
      <cc:Work
         rdf:about="">
        <dc:format>image/svg+xml</dc:format>
        <dc:type
           rdf:resource="http://purl.org/dc/dcmitype/StillImage" />
      </cc:Work>
    </rdf:RDF>
  </metadata>
  <g
     inkscape:label="Layer 1"
     inkscape:groupmode="layer"
     id="layer1"
     transform="translate(-245.22863,-154.31077)">
    <path
       class="stroke-foreground fill-foreground"
       style="fill:none;fill-rule:evenodd;stroke:#ff851b;stroke-width:2;stroke-linecap:butt;stroke-linejoin:miter;stroke-miterlimit:4;stroke-dasharray:none;stroke-opacity:1"
       d="M 1.7046324,128.43273 74.285715,4.7767852"
       id="path3260"
       transform="translate(244.524,151.86197)" />
    <path
       class="stroke-foreground fill-foreground"
       style="opacity:1;fill:none;fill-rule:evenodd;stroke:#ff851b;stroke-width:2;stroke-linecap:butt;stroke-linejoin:miter;stroke-miterlimit:4;stroke-dasharray:none;stroke-opacity:1"
       d="m 307.03991,161.97959 12.12488,-6.05203 v 14.69457"
       id="path3262"
       sodipodi:nodetypes="ccc" />
    <path
       sodipodi:nodetypes="ccc"
       id="path3266"
       d="m 258.35351,161.97959 -12.12488,-6.05203 v 14.69457"
       class="stroke-foreground fill-foreground"
       style="fill:none;fill-rule:evenodd;stroke:#ff851b;stroke-width:2;stroke-linecap:butt;stroke-linejoin:miter;stroke-miterlimit:4;stroke-dasharray:none;stroke-opacity:1" />
    <path
       class="stroke-foreground fill-foreground"
       style="opacity:1;fill:none;fill-rule:evenodd;stroke:#ff851b;stroke-width:2;stroke-linecap:butt;stroke-linejoin:miter;stroke-miterlimit:4;stroke-dasharray:none;stroke-opacity:1"
       d="M 319.17204,280.30544 286.79257,225.17825"
       id="path3274"
       sodipodi:nodetypes="cc" />
    <path
       class="stroke-foreground fill-foreground"
       style="opacity:1;fill:none;fill-rule:evenodd;stroke:#ff851b;stroke-width:2;stroke-linecap:butt;stroke-linejoin:miter;stroke-miterlimit:4;stroke-dasharray:none;stroke-opacity:1"
       d="M 279.11371,212.08248 246.73424,156.95529"
       id="path3276"
       sodipodi:nodetypes="cc" />
    <path
       id="path3286"
       d="M 434.88633,280.2947 362.30525,156.63876"
       class="stroke-foreground fill-foreground"
       style="fill:none;fill-rule:evenodd;stroke:#ff851b;stroke-width:2;stroke-linecap:butt;stroke-linejoin:miter;stroke-miterlimit:4;stroke-dasharray:none;stroke-opacity:1" />
    <path
       sodipodi:nodetypes="ccc"
       id="path3288"
       d="m 374.07505,161.97959 -12.12488,-6.05203 v 14.69457"
       class="stroke-foreground fill-foreground"
       style="opacity:1;fill:none;fill-rule:evenodd;stroke:#ff851b;stroke-width:2;stroke-linecap:butt;stroke-linejoin:miter;stroke-miterlimit:4;stroke-dasharray:none;stroke-opacity:1" />
    <path
       class="stroke-foreground fill-foreground"
       style="fill:none;fill-rule:evenodd;stroke:#ff851b;stroke-width:2;stroke-linecap:butt;stroke-linejoin:miter;stroke-miterlimit:4;stroke-dasharray:none;stroke-opacity:1"
       d="m 422.76145,161.97959 12.12488,-6.05203 v 14.69457"
       id="path3290"
       sodipodi:nodetypes="ccc" />
    <path
       sodipodi:nodetypes="cc"
       id="path3292"
       d="m 361.94292,280.30544 32.37947,-55.12719"
       class="stroke-foreground fill-foreground"
       style="opacity:1;fill:none;fill-rule:evenodd;stroke:#ff851b;stroke-width:2;stroke-linecap:butt;stroke-linejoin:miter;stroke-miterlimit:4;stroke-dasharray:none;stroke-opacity:1" />
    <path
       sodipodi:nodetypes="cc"
       id="path3294"
       d="m 402.00125,212.08248 32.37947,-55.12719"
       class="stroke-foreground fill-foreground"
       style="opacity:1;fill:none;fill-rule:evenodd;stroke:#ff851b;stroke-width:2;stroke-linecap:butt;stroke-linejoin:miter;stroke-miterlimit:4;stroke-dasharray:none;stroke-opacity:1" />
    <path
       class="stroke-foreground fill-foreground"
       style="opacity:1;fill:none;fill-rule:evenodd;stroke:#ff851b;stroke-width:2;stroke-linecap:butt;stroke-linejoin:miter;stroke-miterlimit:4;stroke-dasharray:none;stroke-opacity:1"
       d="m 481.27749,161.97959 -12.12488,-6.05203 v 14.69457"
       id="path3298"
       sodipodi:nodetypes="ccc" />
    <path
       sodipodi:nodetypes="ccc"
       id="path3300"
       d="m 529.96389,161.97959 12.12488,-6.05203 v 14.69457"
       class="stroke-foreground fill-foreground"
       style="fill:none;fill-rule:evenodd;stroke:#ff851b;stroke-width:2;stroke-linecap:butt;stroke-linejoin:miter;stroke-miterlimit:4;stroke-dasharray:none;stroke-opacity:1" />
    <path
       class="stroke-foreground fill-foreground"
       style="opacity:1;fill:none;fill-rule:evenodd;stroke:#ff851b;stroke-width:2;stroke-linecap:butt;stroke-linejoin:miter;stroke-miterlimit:4;stroke-dasharray:none;stroke-opacity:1"
       d="m 469.14536,280.30544 c 0,0 31.36932,-45.76068 31.36932,-62.38427 0,-16.49739 -30.76047,-60.47861 -30.76047,-60.47861"
       id="path3302"
       sodipodi:nodetypes="czc" />
    <path
       sodipodi:nodetypes="czc"
       id="path3310"
       d="m 541.93093,280.30544 c 0,0 -31.36932,-45.76068 -31.36932,-62.38427 0,-16.49739 30.76047,-60.47861 30.76047,-60.47861"
       class="stroke-foreground fill-foreground"
       style="opacity:1;fill:none;fill-rule:evenodd;stroke:#ff851b;stroke-width:2;stroke-linecap:butt;stroke-linejoin:miter;stroke-miterlimit:4;stroke-dasharray:none;stroke-opacity:1" />
    <text
       xml:space="preserve"
       class="stroke-foreground fill-foreground"
       style="font-style:normal;font-variant:normal;font-weight:normal;font-stretch:normal;line-height:0%;font-family:Arial;-inkscape-font-specification:Arial;text-align:start;writing-mode:lr-tb;text-anchor:start;fill:#ff851b;fill-opacity:1;stroke:none;stroke-width:1px;stroke-linecap:butt;stroke-linejoin:miter;stroke-opacity:1"
       x="268.63358"
       y="304.91718"
       id="text3312"><tspan
         sodipodi:role="line"
         id="tspan3314"
         x="268.63358"
         y="304.91718"
         style="font-size:20px;line-height:1.25">L</tspan></text>
    <text
       id="text3324"
       y="310.36331"
       x="282.13464"
       class="stroke-foreground fill-foreground"
       style="font-style:normal;font-variant:normal;font-weight:normal;font-stretch:normal;line-height:0%;font-family:Arial;-inkscape-font-specification:Arial;text-align:start;writing-mode:lr-tb;text-anchor:start;fill:#ff851b;fill-opacity:1;stroke:none;stroke-width:1px;stroke-linecap:butt;stroke-linejoin:miter;stroke-opacity:1"
       xml:space="preserve"><tspan
         y="310.36331"
         x="282.13464"
         id="tspan3326"
         sodipodi:role="line"
         style="font-size:18px;line-height:1.25">+</tspan></text>
    <text
       id="text3328"
       y="304.91718"
       x="384.54858"
       class="stroke-foreground fill-foreground"
       style="font-style:normal;font-variant:normal;font-weight:normal;font-stretch:normal;line-height:0%;font-family:Arial;-inkscape-font-specification:Arial;text-align:start;writing-mode:lr-tb;text-anchor:start;fill:#ff851b;fill-opacity:1;stroke:none;stroke-width:1px;stroke-linecap:butt;stroke-linejoin:miter;stroke-opacity:1"
       xml:space="preserve"><tspan
         y="304.91718"
         x="384.54858"
         id="tspan3330"
         sodipodi:role="line"
         style="font-size:20px;line-height:1.25">L</tspan></text>
    <text
       xml:space="preserve"
       class="stroke-foreground fill-foreground"
       style="font-style:normal;font-variant:normal;font-weight:normal;font-stretch:normal;line-height:0%;font-family:Arial;-inkscape-font-specification:Arial;text-align:start;writing-mode:lr-tb;text-anchor:start;fill:#ff851b;fill-opacity:1;stroke:none;stroke-width:1px;stroke-linecap:butt;stroke-linejoin:miter;stroke-opacity:1"
       x="305.43973"
       y="404.06268"
       id="text3332"
       transform="scale(1.3019021,0.7681069)"><tspan
         sodipodi:role="line"
         id="tspan3334"
         x="305.43973"
         y="404.06268"
         style="font-size:23.4342px;line-height:1.25">-</tspan></text>
    <text
       xml:space="preserve"
       class="stroke-foreground fill-foreground"
       style="font-style:normal;font-variant:normal;font-weight:normal;font-stretch:normal;line-height:0%;font-family:Arial;-inkscape-font-specification:Arial;text-align:start;writing-mode:lr-tb;text-anchor:start;fill:#ff851b;fill-opacity:1;stroke:none;stroke-width:1px;stroke-linecap:butt;stroke-linejoin:miter;stroke-opacity:1"
       x="496.17044"
       y="304.91718"
       id="text3336"><tspan
         sodipodi:role="line"
         id="tspan3338"
         x="496.17044"
         y="304.91718"
         style="font-size:20px;line-height:1.25">L</tspan></text>
    <text
       id="text3340"
       y="307.2027"
       x="510.88031"
       class="stroke-foreground fill-foreground"
       style="font-style:normal;font-variant:normal;font-weight:normal;font-stretch:normal;line-height:0%;font-family:Arial;-inkscape-font-specification:Arial;text-align:start;writing-mode:lr-tb;text-anchor:start;fill:#ff851b;fill-opacity:1;stroke:none;stroke-width:1px;stroke-linecap:butt;stroke-linejoin:miter;stroke-opacity:1"
       xml:space="preserve"><tspan
         y="307.2027"
         x="510.88031"
         id="tspan3342"
         sodipodi:role="line"
         style="font-size:13.6026px;line-height:1.25">0</tspan></text>
  </g>
</svg>

<svg xmlns:dc="http://purl.org/dc/elements/1.1/" xmlns:cc="http://creativecommons.org/ns#" xmlns:rdf="http://www.w3.org/1999/02/22-rdf-syntax-ns#" xmlns:svg="http://www.w3.org/2000/svg" xmlns="http://www.w3.org/2000/svg" xmlns:sodipodi="http://sodipodi.sourceforge.net/DTD/sodipodi-0.dtd" xmlns:inkscape="http://www.inkscape.org/namespaces/inkscape" id="svg2" sodipodi:version="0.32" inkscape:version="0.46" version="1.0" sodipodi:docname="Skein (HOMFLY).svg" inkscape:output_extension="org.inkscape.output.svg.inkscape">
  <defs id="defs4">
    <inkscape:perspective sodipodi:type="inkscape:persp3d" inkscape:vp_x="0 : 526.18109 : 1" inkscape:vp_y="0 : 1000 : 0" inkscape:vp_z="744.09448 : 526.18109 : 1" inkscape:persp3d-origin="372.04724 : 350.78739 : 1" id="perspective10"/>
    <inkscape:perspective id="perspective2390" inkscape:persp3d-origin="372.04724 : 350.78739 : 1" inkscape:vp_z="744.09448 : 526.18109 : 1" inkscape:vp_y="0 : 1000 : 0" inkscape:vp_x="0 : 526.18109 : 1" sodipodi:type="inkscape:persp3d"/>
    <inkscape:perspective id="perspective3195" inkscape:persp3d-origin="372.04724 : 350.78739 : 1" inkscape:vp_z="744.09448 : 526.18109 : 1" inkscape:vp_y="0 : 1000 : 0" inkscape:vp_x="0 : 526.18109 : 1" sodipodi:type="inkscape:persp3d"/>
    <inkscape:perspective id="perspective3254" inkscape:persp3d-origin="372.04724 : 350.78739 : 1" inkscape:vp_z="744.09448 : 526.18109 : 1" inkscape:vp_y="0 : 1000 : 0" inkscape:vp_x="0 : 526.18109 : 1" sodipodi:type="inkscape:persp3d"/>
  </defs>
  <sodipodi:namedview id="base" pagecolor="#ffffff" bordercolor="#666666" borderopacity="1.0" gridtolerance="10000" guidetolerance="10" objecttolerance="10" inkscape:pageopacity="0.0" inkscape:pageshadow="2" inkscape:zoom="2.8" inkscape:cx="60.671279" inkscape:cy="114.58079" inkscape:document-units="px" inkscape:current-layer="layer1" showgrid="false" showguides="true" inkscape:guide-bbox="true" inkscape:window-width="1280" inkscape:window-height="968" inkscape:window-x="-4" inkscape:window-y="-4"/>
  <metadata id="metadata7">
    <rdf:RDF>
      <cc:Work rdf:about="">
        <dc:format>image/svg+xml</dc:format>
        <dc:type rdf:resource="http://purl.org/dc/dcmitype/StillImage"/>
      </cc:Work>
    </rdf:RDF>
  </metadata>
  <g inkscape:label="Layer 1" inkscape:groupmode="layer" id="layer1" transform="translate(-244.524,-151.86197)">
    <path class="stroke-foreground fill-foreground" style="fill:none;fill-rule:evenodd;stroke:#111111;stroke-width:2;stroke-linecap:butt;stroke-linejoin:miter;stroke-opacity:1;stroke-miterlimit:4;stroke-dasharray:none" d="M 1.7046324,128.43273 L 74.285715,4.7767852" id="path3260" transform="translate(244.524,151.86197)"/>
    <path class="stroke-foreground fill-foreground" style="opacity:1;fill:none;fill-rule:evenodd;stroke:#111111;stroke-width:2;stroke-linecap:butt;stroke-linejoin:miter;stroke-miterlimit:4;stroke-dasharray:none;stroke-opacity:1" d="M 307.03991,161.97959 L 319.16479,155.92756 L 319.16479,170.62213" id="path3262" sodipodi:nodetypes="ccc"/>
    <path sodipodi:nodetypes="ccc" id="path3266" d="M 258.35351,161.97959 L 246.22863,155.92756 L 246.22863,170.62213" class="stroke-foreground fill-foreground" style="fill:none;fill-rule:evenodd;stroke:#111111;stroke-width:2;stroke-linecap:butt;stroke-linejoin:miter;stroke-miterlimit:4;stroke-dasharray:none;stroke-opacity:1"/>
    <path class="stroke-foreground fill-foreground" style="opacity:1;fill:none;fill-rule:evenodd;stroke:#111111;stroke-width:2;stroke-linecap:butt;stroke-linejoin:miter;stroke-miterlimit:4;stroke-dasharray:none;stroke-opacity:1" d="M 319.17204,280.30544 L 286.79257,225.17825" id="path3274" sodipodi:nodetypes="cc"/>
    <path class="stroke-foreground fill-foreground" style="opacity:1;fill:none;fill-rule:evenodd;stroke:#111111;stroke-width:2;stroke-linecap:butt;stroke-linejoin:miter;stroke-miterlimit:4;stroke-dasharray:none;stroke-opacity:1" d="M 279.11371,212.08248 L 246.73424,156.95529" id="path3276" sodipodi:nodetypes="cc"/>
    <path id="path3286" d="M 434.88633,280.2947 L 362.30525,156.63876" class="stroke-foreground fill-foreground" style="fill:none;fill-rule:evenodd;stroke:#111111;stroke-width:2;stroke-linecap:butt;stroke-linejoin:miter;stroke-miterlimit:4;stroke-dasharray:none;stroke-opacity:1"/>
    <path sodipodi:nodetypes="ccc" id="path3288" d="M 374.07505,161.97959 L 361.95017,155.92756 L 361.95017,170.62213" class="stroke-foreground fill-foreground" style="opacity:1;fill:none;fill-rule:evenodd;stroke:#111111;stroke-width:2;stroke-linecap:butt;stroke-linejoin:miter;stroke-miterlimit:4;stroke-dasharray:none;stroke-opacity:1"/>
    <path class="stroke-foreground fill-foreground" style="fill:none;fill-rule:evenodd;stroke:#111111;stroke-width:2;stroke-linecap:butt;stroke-linejoin:miter;stroke-miterlimit:4;stroke-dasharray:none;stroke-opacity:1" d="M 422.76145,161.97959 L 434.88633,155.92756 L 434.88633,170.62213" id="path3290" sodipodi:nodetypes="ccc"/>
    <path sodipodi:nodetypes="cc" id="path3292" d="M 361.94292,280.30544 L 394.32239,225.17825" class="stroke-foreground fill-foreground" style="opacity:1;fill:none;fill-rule:evenodd;stroke:#111111;stroke-width:2;stroke-linecap:butt;stroke-linejoin:miter;stroke-miterlimit:4;stroke-dasharray:none;stroke-opacity:1"/>
    <path sodipodi:nodetypes="cc" id="path3294" d="M 402.00125,212.08248 L 434.38072,156.95529" class="stroke-foreground fill-foreground" style="opacity:1;fill:none;fill-rule:evenodd;stroke:#111111;stroke-width:2;stroke-linecap:butt;stroke-linejoin:miter;stroke-miterlimit:4;stroke-dasharray:none;stroke-opacity:1"/>
    <path class="stroke-foreground fill-foreground" style="opacity:1;fill:none;fill-rule:evenodd;stroke:#111111;stroke-width:2;stroke-linecap:butt;stroke-linejoin:miter;stroke-miterlimit:4;stroke-dasharray:none;stroke-opacity:1" d="M 481.27749,161.97959 L 469.15261,155.92756 L 469.15261,170.62213" id="path3298" sodipodi:nodetypes="ccc"/>
    <path sodipodi:nodetypes="ccc" id="path3300" d="M 529.96389,161.97959 L 542.08877,155.92756 L 542.08877,170.62213" class="stroke-foreground fill-foreground" style="fill:none;fill-rule:evenodd;stroke:#111111;stroke-width:2;stroke-linecap:butt;stroke-linejoin:miter;stroke-miterlimit:4;stroke-dasharray:none;stroke-opacity:1"/>
    <path class="stroke-foreground fill-foreground" style="opacity:1;fill:none;fill-rule:evenodd;stroke:#111111;stroke-width:2;stroke-linecap:butt;stroke-linejoin:miter;stroke-miterlimit:4;stroke-dasharray:none;stroke-opacity:1" d="M 469.14536,280.30544 C 469.14536,280.30544 500.51468,234.54476 500.51468,217.92117 C 500.51468,201.42378 469.75421,157.44256 469.75421,157.44256" id="path3302" sodipodi:nodetypes="czc"/>
    <path sodipodi:nodetypes="czc" id="path3310" d="M 541.93093,280.30544 C 541.93093,280.30544 510.56161,234.54476 510.56161,217.92117 C 510.56161,201.42378 541.32208,157.44256 541.32208,157.44256" class="stroke-foreground fill-foreground" style="opacity:1;fill:none;fill-rule:evenodd;stroke:#111111;stroke-width:2;stroke-linecap:butt;stroke-linejoin:miter;stroke-miterlimit:4;stroke-dasharray:none;stroke-opacity:1"/>
    <text xml:space="preserve" class="stroke-foreground fill-foreground" style="font-size:20px;font-style:normal;font-variant:normal;font-weight:normal;font-stretch:normal;text-align:start;line-height:125%;writing-mode:lr-tb;text-anchor:start;fill:#111111;fill-opacity:1;stroke:none;stroke-width:1px;stroke-linecap:butt;stroke-linejoin:miter;stroke-opacity:1;font-family:Arial;-inkscape-font-specification:Arial" x="268.63358" y="304.91718" id="text3312" sodipodi:linespacing="125%"><tspan sodipodi:role="line" id="tspan3314" x="268.63358" y="304.91718">L</tspan></text>
    <text sodipodi:linespacing="125%" id="text3324" y="310.36331" x="282.13464" class="stroke-foreground fill-foreground" style="font-size:18px;font-style:normal;font-variant:normal;font-weight:normal;font-stretch:normal;text-align:start;line-height:125%;writing-mode:lr-tb;text-anchor:start;fill:#111111;fill-opacity:1;stroke:none;stroke-width:1px;stroke-linecap:butt;stroke-linejoin:miter;stroke-opacity:1;font-family:Arial;-inkscape-font-specification:Arial" xml:space="preserve"><tspan y="310.36331" x="282.13464" id="tspan3326" sodipodi:role="line">+</tspan></text>
    <text sodipodi:linespacing="125%" id="text3328" y="304.91718" x="384.54858" class="stroke-foreground fill-foreground" style="font-size:20px;font-style:normal;font-variant:normal;font-weight:normal;font-stretch:normal;text-align:start;line-height:125%;writing-mode:lr-tb;text-anchor:start;fill:#111111;fill-opacity:1;stroke:none;stroke-width:1px;stroke-linecap:butt;stroke-linejoin:miter;stroke-opacity:1;font-family:Arial;-inkscape-font-specification:Arial" xml:space="preserve"><tspan y="304.91718" x="384.54858" id="tspan3330" sodipodi:role="line">L</tspan></text>
    <text xml:space="preserve" class="stroke-foreground fill-foreground" style="font-size:23.43424034px;font-style:normal;font-variant:normal;font-weight:normal;font-stretch:normal;text-align:start;line-height:125%;writing-mode:lr-tb;text-anchor:start;fill:#111111;fill-opacity:1;stroke:none;stroke-width:1px;stroke-linecap:butt;stroke-linejoin:miter;stroke-opacity:1;font-family:Arial;-inkscape-font-specification:Arial" x="305.43973" y="404.06268" id="text3332" sodipodi:linespacing="125%" transform="scale(1.3019021,0.7681069)"><tspan sodipodi:role="line" id="tspan3334" x="305.43973" y="404.06268">-</tspan></text>
    <text xml:space="preserve" class="stroke-foreground fill-foreground" style="font-size:20px;font-style:normal;font-variant:normal;font-weight:normal;font-stretch:normal;text-align:start;line-height:125%;writing-mode:lr-tb;text-anchor:start;fill:#111111;fill-opacity:1;stroke:none;stroke-width:1px;stroke-linecap:butt;stroke-linejoin:miter;stroke-opacity:1;font-family:Arial;-inkscape-font-specification:Arial" x="496.17044" y="304.91718" id="text3336" sodipodi:linespacing="125%"><tspan sodipodi:role="line" id="tspan3338" x="496.17044" y="304.91718">L</tspan></text>
    <text sodipodi:linespacing="125%" id="text3340" y="307.2027" x="510.88031" class="stroke-foreground fill-foreground" style="font-size:13.60263348px;font-style:normal;font-variant:normal;font-weight:normal;font-stretch:normal;text-align:start;line-height:125%;writing-mode:lr-tb;text-anchor:start;fill:#111111;fill-opacity:1;stroke:none;stroke-width:1px;stroke-linecap:butt;stroke-linejoin:miter;stroke-opacity:1;font-family:Arial;-inkscape-font-specification:Arial" xml:space="preserve"><tspan y="307.2027" x="510.88031" id="tspan3342" sodipodi:role="line">0</tspan></text>
  </g>
</svg>
